icons/Xenlism-Storm/Apps/task.svg

<?xml version="1.0" encoding="utf-8"?>
<!-- Generator: Adobe Illustrator 22.0.1, SVG Export Plug-In . SVG Version: 6.00 Build 0)  -->
<svg version="1.1" id="Layer_1" xmlns:serif="http://www.serif.com/"
	 xmlns="http://www.w3.org/2000/svg" xmlns:xlink="http://www.w3.org/1999/xlink" x="0px" y="0px" viewBox="0 0 512 512"
	 enable-background="new 0 0 512 512" xml:space="preserve">
<g>
	<g transform="matrix(1.02081,0,0,1.02081,-10.7384,-7.8066)">
		<path fill="#2DD594" d="M374.32,33.118c38.277,0.182,75.71,21.15,95.795,53.967c10.688,17.464,16.398,37.929,16.495,58.323
			c0.12,75.347,0.12,150.693,0,226.04c-0.182,38.277-21.15,75.71-53.967,95.795c-17.464,10.688-37.929,16.398-58.323,16.495
			c-75.347,0.12-150.693,0.12-226.04,0c-37.666-0.179-74.805-20.566-95.078-52.813c-11.118-17.683-17.112-38.539-17.212-59.477
			c-0.12-75.347-0.12-150.693,0-226.04c0.182-38.277,21.15-75.71,53.967-95.795c17.464-10.688,37.929-16.398,58.323-16.495
			C223.627,32.998,298.973,32.998,374.32,33.118z M148.66,52.71c-31.389,0.049-61.948,16.907-78.722,43.411
			c-9.274,14.653-14.273,32-14.356,49.35c-0.119,75.405-0.357,150.812,0.002,226.216c0.249,31.474,17.604,62.435,44.84,78.991
			c14.273,8.676,30.945,13.334,47.617,13.467c75.505,0.359,151.013,0.359,226.518,0c38.173-0.305,74.524-25.839,87.294-62.423
			c3.367-9.645,5.082-19.876,5.164-30.035c0.359-75.505,0.359-151.013,0-226.518c-0.307-38.392-26.244-75.045-63.231-87.572
			c-9.588-3.247-19.715-4.887-29.846-4.887C298.847,52.709,223.753,52.71,148.66,52.71z"/>
	</g>
</g>
<g id="path280" transform="matrix(0.97216,0,0,0.97216,7.12712,100.257)">
	<path fill="#2DD594" d="M345.127,76.078c-4.375-4.375-11.535-4.375-15.91,0l-80.592,80.592c-4.376,4.375-11.535,4.375-15.91,0
		l-49.932-49.932c-4.375-4.375-11.535-4.375-15.91,0l-27.918,27.918c-4.376,4.377-4.376,11.535,0,15.91l49.93,49.932l15.91,15.91
		l27.92,27.918c4.375,4.377,11.534,4.377,15.909,0l27.919-27.918c4.375-4.375,11.535-11.535,15.91-15.91l80.592-80.592
		c4.375-4.375,4.375-11.535,0-15.91L345.127,76.078z"/>
</g>
</svg>

<?xml version="1.0" encoding="UTF-8" standalone="no"?>
<!DOCTYPE svg PUBLIC "-//W3C//DTD SVG 1.1//EN" "http://www.w3.org/Graphics/SVG/1.1/DTD/svg11.dtd">
<svg width="100%" height="100%" viewBox="0 0 512 512" version="1.1" xmlns="http://www.w3.org/2000/svg" xmlns:xlink="http://www.w3.org/1999/xlink" xml:space="preserve" xmlns:serif="http://www.serif.com/" style="fill-rule:evenodd;clip-rule:evenodd;stroke-linejoin:round;stroke-miterlimit:1.41421;">
    <g>
        <g transform="matrix(1.02081,0,0,1.02081,-10.7384,-7.8066)">
            <path d="M486.611,145.773C486.611,83.596 436.132,33.117 373.955,33.117L148.645,33.117C86.468,33.117 35.989,83.596 35.989,145.773L35.989,371.083C35.989,433.26 86.468,483.739 148.645,483.739L373.955,483.739C436.132,483.739 486.611,433.26 486.611,371.083L486.611,145.773Z" style="fill:rgb(0,142,91);"/>
        </g>
        <g transform="matrix(1.02081,0,0,1.02081,-10.7384,-7.8066)">
            <path d="M374.32,33.118C412.597,33.3 450.03,54.268 470.115,87.085C480.803,104.549 486.513,125.014 486.61,145.408C486.73,220.755 486.73,296.101 486.61,371.448C486.428,409.725 465.46,447.158 432.643,467.243C415.179,477.931 394.714,483.641 374.32,483.738C298.973,483.858 223.627,483.858 148.28,483.738C110.614,483.559 73.475,463.172 53.202,430.925C42.084,413.242 36.09,392.386 35.99,371.448C35.87,296.101 35.87,220.755 35.99,145.408C36.172,107.131 57.14,69.698 89.957,49.613C107.421,38.925 127.886,33.215 148.28,33.118C223.627,32.998 298.973,32.998 374.32,33.118ZM148.66,52.71C117.271,52.759 86.712,69.617 69.938,96.121C60.664,110.774 55.665,128.121 55.582,145.471C55.463,220.876 55.225,296.283 55.584,371.687C55.833,403.161 73.188,434.122 100.424,450.678C114.697,459.354 131.369,464.012 148.041,464.145C223.546,464.504 299.054,464.504 374.559,464.145C412.732,463.84 449.083,438.306 461.853,401.722C465.22,392.077 466.935,381.846 467.017,371.687C467.376,296.182 467.376,220.674 467.017,145.169C466.71,106.777 440.773,70.124 403.786,57.597C394.198,54.35 384.071,52.71 373.94,52.71C298.847,52.709 223.753,52.71 148.66,52.71Z" style="fill:rgb(45,213,148);fill-rule:nonzero;"/>
        </g>
    </g>
    <g>
        <g opacity="0.610953">
            <path id="rect4" d="M256,287.1C256,281.25 251.25,276.5 245.4,276.5L145.1,276.5C139.25,276.5 134.5,281.25 134.5,287.1C134.5,292.95 139.25,297.7 145.1,297.7L245.4,297.7C251.25,297.7 256,292.95 256,287.1Z" style="fill:rgb(242,242,242);"/>
            <path id="rect6" d="M377.5,328.3C377.5,322.45 372.75,317.7 366.9,317.7L145.1,317.7C139.25,317.7 134.5,322.45 134.5,328.3C134.5,334.15 139.25,338.9 145.1,338.9L366.9,338.9C372.75,338.9 377.5,334.15 377.5,328.3Z" style="fill:rgb(242,242,242);"/>
            <path id="rect8" d="M377.5,368.3C377.5,362.45 372.75,357.7 366.9,357.7L145.1,357.7C139.25,357.7 134.5,362.45 134.5,368.3C134.5,374.15 139.25,378.9 145.1,378.9L366.9,378.9C372.75,378.9 377.5,374.15 377.5,368.3Z" style="fill:rgb(242,242,242);"/>
            <path id="rect10" d="M377.4,408.4C377.4,402.55 372.65,397.8 366.8,397.8L266.6,397.8C260.75,397.8 256,402.55 256,408.4C256,414.25 260.75,419 266.6,419L366.8,419C372.65,419 377.4,414.25 377.4,408.4Z" style="fill:rgb(242,242,242);"/>
        </g>
    </g>
    <g id="path280" transform="matrix(0.97216,0,0,0.97216,7.12712,100.257)">
        <path d="M345.127,76.079C340.752,71.704 333.592,71.704 329.217,76.079L248.625,156.671C244.249,161.046 237.09,161.046 232.715,156.671L182.783,106.739C178.408,102.364 171.248,102.364 166.873,106.739L138.955,134.657C134.579,139.034 134.579,146.192 138.955,150.567L188.885,200.499L204.795,216.409L232.715,244.327C237.09,248.704 244.249,248.704 248.624,244.327L276.543,216.409C280.918,212.034 288.078,204.874 292.453,200.499L373.045,119.907C377.42,115.532 377.42,108.372 373.045,103.997L345.127,76.079Z" style="fill:white;fill-rule:nonzero;"/>
    </g>
</svg>
